X:1
T:The Land of My Youth
M:3/4
L:1/8
Q:80
C:D. MacLellan
S:Retreat
K:HP
|: {g}fa{fg}f2{Gdc}d2 | \
{gef}ed{gBd}B2{G}A2 | \
{g}fa{fg}f2{Gdc}d2 |
{g}fg{ef}e4 | \
{g}fa{fg}f2{Gdc}d2 | \
{gef}ed{gBd}B2{G}A2 |
{g}fg{ef}e3{AGAG}A/2 | \
{g}e3/2f/2{Gdc}d4 :: \
{g}fa{g}a2{fg}fd |
{gef}ed{gBd}B2{G}A2 | \
{g}fa{g}a2{fg}fd | \
{g}fg{ef}e4 |
{g}fa{g}a2{fg}fd | \
{gef}ed{gBd}B2{G}A2 | \
{g}fg{ef}e3{AGAG} |
{g}e3/2f/2{Gdc}d4 :|
